X:1
T:Title
%%score { ( 1 3 ) | ( 2 4 ) }
L:1/8
M:4/4
K:Db
V:1 treble nm="Grand Piano"
V:3 treble 
V:2 bass 
V:4 bass 
V:1
 z4 z2[Q:1/4=100] FE | DDDD D2 F[EG] | [FA][FA][GA][GA] A2 [FA][FA] | %3
 [Fd][Fd][Fd][GB] [FA][FA][EG][DF] | [CE]6 [DF][CE] |[M:3/4] DD DD D2 |[M:1/4] F[EG] | %7
[M:3/4] [FA][FA] [CGA][CGA] [DA]2 |[M:1/4] [DBd][=Ae] | %9
[M:4/4] [Af][Fd][Gd][GB] [FA][FA] [Ge]>[EGc] |[M:3/4] [DFd]6 |[M:1/4] A>=G |[M:4/4] A6 z2 | d6 z2 | %14
[M:2/4] [FA][FA] [FA][FA] | [Fd][Fd] [Gc][Ad] |[M:4/4] e6 z2 | A6 z2 |[M:3/4] d6 | %19
[M:1/4] [DBd][=Ae] |[M:4/4] [Af][Fd][Gd][GB] [FA][FA] [Ge]>[Gc] |[M:7/4] [Fd]6 z2 z2 z4 |] %22
V:2
 z4 z2 [D,A,D][D,G,D] | [D,F,][D,F,][D,G,B,][D,G,B,] [D,F,A,]2 [D,A,D][D,A,] | %2
 [D,D][D,D][E,C][E,C] [F,D]2 [D,D][D,D] | [D,A,][D,A,][D,A,][D,D] [D,D][D,D][C,A,][D,A,] | %4
 [A,,A,]6 [A,,A,][A,,G,] |[M:3/4] [D,F,][D,F,] [D,G,B,][D,G,B,] [D,F,A,]2 |[M:1/4] [D,A,D][D,A,] | %7
[M:3/4] [D,D][D,D] E,E, F,2 |[M:1/4] G,[G,D] |[M:4/4] [D,D][D,D][G,B,][G,D] [D,D][D,D] [A,C]>A, | %10
[M:3/4] D,6 |[M:1/4][K:treble] F>_F |[M:4/4] F6[K:bass][K:treble] z2 | B6[K:bass] z2 | %14
[M:2/4] [D,D][D,D] [D,D][D,D] | [D,A,][D,A,] [E,A,][F,A,] | %16
[M:4/4][K:treble] [A,CA]2 [B,D][B,D] [A,C]2 F>_F | F6[K:bass][K:treble] z2 |[M:3/4] B6[K:bass] | %19
[M:1/4] G,[G,D] |[M:4/4] [D,D][D,D][G,B,][G,D] [D,D][D,D] [A,C]>[A,E] |[M:7/4] [D,D]6 z2 z2 z4 |] %22
V:3
 x8 | x8 | x8 | x8 | x8 |[M:3/4] x6 |[M:1/4] x2 |[M:3/4] x6 |[M:1/4] x2 |[M:4/4] x8 |[M:3/4] x6 | %11
[M:1/4] x2 |[M:4/4] z2 (3DDD D2 d>c | z2 (3DDD D2 [DAc][DGB] |[M:2/4] x4 | x4 | %16
[M:4/4] z2 =GG _G2 A>=G | z2 (3DDD D2 d>c |[M:3/4] z2 (3DDD D2 |[M:1/4] x2 |[M:4/4] x8 | %21
[M:7/4] x14 |] %22
V:4
 x8 | x8 | x8 | x8 | x8 |[M:3/4] x6 |[M:1/4] x2 |[M:3/4] x6 |[M:1/4] x2 |[M:4/4] x8 |[M:3/4] x6 | %11
[M:1/4][K:treble] x2 |[M:4/4] z2[K:bass] (3D,D,D, D,2[K:treble] B>=A | %13
 z2[K:bass] (3G,G,G, G,2 G,G, |[M:2/4] x4 | x4 |[M:4/4][K:treble] x8 | %17
 z2[K:bass] (3D,D,D, D,2[K:treble] B>=A |[M:3/4] z2[K:bass] (3G,G,G, G,2 |[M:1/4] x2 |[M:4/4] x8 | %21
[M:7/4] x14 |] %22

